X: 3014
Q:"Reel."
M: C
L: 1/8
K: D
uA |\
d2fd (cd)Bd | AdFd EecA |\
d2fd (cd)AF | GEec d3 :|\
f |\
afdf afba | gfed cdef |
gfed cbag | fedc d2(df) |\
afdf afba | gfed cBAG |\


